X:1
T:MIGNONNE
T:[Audiveris detected movement]
T:MIGNONNE
T:Gabriel Pierne
%%score 1 { ( 2 4 ) | 3 }
L:1/8
Q:1/4=125
M:6/8
K:G
V:1 treble nm="Voice"
V:2 treble nm="Piano"
V:4 treble 
V:3 bass 
V:1
"^Allegretto" z6 | z6 | z3 z2!p! d | dGG GGA | (B2 c) d z G | G2 z{/B} AGA | B3- B z z | %7
w: ||A-|vant que la feuil- le fris-|son- * ne Tom-|bant sur le che-|min, _|
!<(! B^cd e2!<)! e |!>(! d2 ^c B3-!>)! | B2 B BAG | F3- F z F |!<(! AcB ABc | e3!<)! e z!p!!<(! c | %13
w: Ah! don- ne- moi ta|main, Mignon- *|* ne, Don- ne ta|main! _ A-|vant que la feuille * fris|son ne, Mi|
 d6!<)! | d2 z!p! ABD | D3- D z z | z6 | z6 | d2 G GGA |!<(! B2 ^c dd!<)!d |!f! f3 BB^c | d6 | %22
w: gnon|ne, Don- ne ta|main! *|||Vois dé jà le so|leil * fayomne, * Le|ciel va s’embra *|ser;|
!p! ^cF^G ^A2 c | B2 ^c d2 d |!<(! f6- | f2-!<)! f/ z/!p! ^G^A^C |"^Rit." F6-[Q:1/4=80] | F3 z FF | %28
w: Ah! donne un doux bai-|ser, Mi- gnon- ne,|Ah!|_ _ Donne un bai-|ser!|_ Il et|
"^a tempo"[Q:1/4=125] B2 B BB^c | (^d2 e) fBB | B2 z{/^d} (^cB)c | ^d6 |!pp! ^d^DD D2 D | %33
w: jour, l'a- beil- le bour-|don- * ne Sur le|sein de _ la|fleur:|Ah! don ne- moi ton|
 B2 ^c B2 B | ^d3 ^D2 D | B3- B z!p! B | =d=GG GGA | (B2 c) d z G | G3{/B} AGA | B3- B z z | %40
w: cœur, Mignon * *|Don ne ton|cœur! * A|vant que la feuiLle * fris|son * ne Tom|haut sur le che|min, *|
!<(! B^cd e2 e | d2!<)! ^c!>(! B3-!>)! |!>(! B2!>)! B!p! BAG | F3- F z F |!<(! AcB AB!<)!c | %45
w: Ah! don ne- moi ta|main, Mi gnon|* ne, Don ne ta|main! * A|vant que- la feuil le fris|
!<(! e3-!<)! e z!f! c | g6 | g z z!p! AcE | G6- | G6- | G z z z3 | z6 | z6 |] %53
w: son * Mi|gnon|ne, Don ne ta|main!|_||||
V:2
!p!!<(! (B,DG Bdg!<)! | [dgb]) z (((((([Bdg]!>(! [GBe])))))) z (([EG-c] | %2
 [DGB])) z!>)! G{/B} (AGA | [B,G]) z ((([Bdg] [GBe]))) z (([EG-c] | %4
 [DGB])) z (([CD-A] [B,DG])) z z | [CEG] z z [CFA] z z | [B,DG] z z z3 | %7
 z2!<(! ((([Bdf] [GBe]))) z!<)! ((([EG^c] | [FBd]))) z!>(! ((([EF^c] [DFB]))) z!>)! ([B,-D-F] | %9
 [B,DG]) z!p! ((([DGB] [GBd]))) z z | [FBd] z ([EF-^c] [DFB]) z [B,DF] | [=CEF] z z!<(! [EFc] z z | %12
 [EGc] z!<)! ((([Gce] [ceg]))) z z | z3!f! !arpeggio!.!tenuto![dfbd'] z z |!p! [dfad'] z z z3 | %15
 z2 ((([Bdg] [GBe]))) z ((([EFc] | [DGB]))) z (([CD-A] [B,DG])) z (([DGB-] | %17
 [GBd])) z z [CFA] z ((([DFB] | [G,B,D]))) z ((([Bdg] [GBe]))) z ((([EFc] | %19
!<(! [DFB]))) z ((([^CE^A] [B,DF]))) z!<)! ((([B,F^G] | [^CE^A]))) z z [CE^G] z ((([CEA] | %21
!>(! [D-FB]))) z ((([FBd] [B,DF]))) z!>)! ((([DF^G] |!p! [^CF^A]))) z ([C-^G] [CF]) z (([FA] | %23
 [F^G])) z ([F-^A] [FG]) z ((!arpeggio![FGB] | [^CF^A]))(F^G A^cf) | %25
 [=df^g=d'] z z!p! !arpeggio![^c^eg^c'] z z | z (Bf ^A)(^G^c | F)(Bf ^A) F2 | %28
 [^DF] z ((([^dfb] [Bd^g]))) z (([G^Ae] | [FB^d])) z (([EF-^c] [^DFB])) z z | %30
 [E^GB] z z [E^A^c] z z | [^DFB^d] z z z3 |"^Molto rit." z2 ((([B,^D^G] [DGB]))) z z | %33
 z3 [B^d=gb] z z | z2 ((([B,^D^G] [DGB]))) z z | z3 [B^d=gb] z z | %36
 z2 ((([Bdg] [GBe]))) z ((([EFc] | [DGB]))) z (([CD-A] [B,DG])) z z | [CEG] z z [CFA] z z | %39
 .[B,DG].B,.D .G.B.d |!<(! .^f.e.d .^c.B.G | .F.G!<)!.E!>(! .D.^C!>)!.B, | .^C.E.G .B.^c.e | %43
 .d.^c.B .F.D.B, |!<(! .=C.E.D .C.D!<)!.E |!<(! .G.c.e!<)! [gc'e'g'] z z | %46
 z3!f! !arpeggio![gbd'g'] z z |!p! [ege'] z z z3 | (B,DG Bdg | %49
 [dgb]) z ((([Bdg] [GBe]))) z (([EG-c] | [DGB])) z (G{/B} AGA | [DG]3) [dg]3 | %52
 [gbg']3- [gbg'] z z |] %53
V:3
 G,, z z z3 | z6 | z2 B, C3 |!ped! [G,,,G,,] z z z3 | z6!ped-up! | D, z z D,, z z | %6
 (G,,,D,,G,, B,,D,G, | [B,,F,]) z z z3 | z6 | E,, z z E, z z | B,,, z z z3 | D,, z z z3 | z6 | %13
 D,, z z[K:treble] !arpeggio!.!tenuto![DFB] z z | [DAc] z z z3 |[K:bass] G,,, z z z3 | z6 | %17
 z3 D z z | G,,, z z z3 | B,,, z z z3 | z6 | B,,, z z z3 | ^C,, z (B, ^A,) z (^C | %23
 =D) z (^C B,) z z | ^C,, z z z3 |[K:treble] [^C^GB] z z !arpeggio![CGB] z z | %26
[K:bass] F,, (E2"^Rit." ^C) (B,2 | ^A,) (E2 ^C)(A,F,, | [B,,,B,,]) z z z3 | z6 | F, z z F,, z z | %31
 (B,,,F,,B,, ^D,F,B,) |!pp! [^G,,^D,]3- [G,,D,] z z | [=G,,^D,]3- [=G,,D,] z z | %34
 [^G,,^D,]3- [G,,D,] z z | [=G,,^D,]3- [=G,,D,] z z | =D,, z z z3 | z6 | D, z z D,, z z | %39
 G,, z z z3 | !arpeggio![B,,F,D] z z !arpeggio![B,,G,^C] z z | !arpeggio![B,,F,B,] z z z3 | %42
 !arpeggio![E,,B,,G,] z z z3 | !arpeggio![B,,F,] z z z3 | D,, z z z3 | %45
 [E,G,C] z z[K:treble] [EGc] z z |[K:bass] D,, z z[K:treble] !arpeggio![DGBd] z z | [DAc] z z z3 | %48
[K:bass] [G,,D,] z z z3 | z6 | z2 B, C3 |!ped! [G,B,]3[K:treble] [GB]3 | [Gd]3- [Gd] z z!ped-up! |] %53
V:4
 x6 | x6 | x2 D E3 | x6 | x6 | x6 | x6 | x6 | x6 | x6 | x6 | x6 | x6 | x6 | x6 | x6 | x6 | x6 | %18
 x6 | x6 | x6 | x6 | x6 | x6 | x6 | x6 | x ^G2 F E2- | E ^G2 F E2 | x6 | x6 | x6 | x6 | x6 | x6 | %34
 x6 | x6 | x6 | x6 | x6 | x6 | x6 | x6 | x6 | x6 | x6 | x6 | x6 | x6 | x6 | x6 | x2 D E3 | x6 | %52
 x6 |] %53

